X: 38
T: No_139_He_Must_Be_Sorrowful.krn
N: Derived from No_139_He_Must_Be_Sorrowful.krn
%%abc-version 2.0
%%abcx-abcm2ps-target-version 5.9.1 (29 Sep 2008)
%%abc-creator hum2abc beta
%%abcx-conversion-date 2019/03/15 08:29:13
%%humdrum-veritas 4162649346
%%humdrum-veritas-data 2915753996
%%linebreak <none>
%%barnumbers 0
L: 1/8
M: 2/4
K: C clef=bass
[K:clef=bass][M:2/4]C2C3/C/ | 
C3G, | 
C4 | 
C2C3/C/ | 
G,3F, | 
G,4 | 
G,2C3/C/ | 
G,3F, | 
F,4 | 
F,2F,3/F,/ | 
_E,3C, | 
F,4 | 
F,2G,3/G,/ | 
F,3D, | 
C,2D,2 | 
C,/C,3/C,2 | 
C,4 | 
G,G, C3/C/ | 
G,3{/G,} F, | 
G,4 | 
G,G, CC | 
G,3{/G,} F, | 
F,4 | 
F,F, F,F, | 
_E,2C,C, | 
F,4 | 
F,F, G,3/G,/ | 
F,2D,C, | 
D,2C,C, | 
C,4 |]  



